X:517
T:Reel 517
M:4/4
K:Dmaj
L:1/8
A,|DFEC D2dB|AFGE FDEC|DFEC D2cd|BAEG FDD2|DFEC  (3DCD F2EC|A,2 (3CB,A, EA,CA,|D2FD EFdB|AFEG FDD|c|d2fd  (3fga ec|d2AG FDDB,|d2FA dfed| (3cBA BG A2FA|d2fd cfed|ceAc BAec|dfeg faed| (3Bcd AG FDD|
